X:193
T:Fantocini THO3.193, The
O:England;London
M:6/8
L:1/8
Z:vmp. Peter Dunk 2011.from a transcription by Fynn Titford-Mock 2006-9
B:Thompson's Compleat Collection of 200 Favourite Country Dances Vol. III.1765-72
Q:3/8=100
K:F
fcc Tc3|dAA TA3|GBA GAF|EFG C3|fcc Tc3|dAA A2 Tf|edc GA=B|c3c3:|
|:gcc Tc3|acc Tc3|dcB AGF|EFG C3|fcc Tc3|dAA A3|GBA GFE|[F3A,3][F3A,3]:|

